X:226
T:Jumping Deberah. VWMLa.226
%%VWML:Anon2-3049-p145-0
F:http://www.vwml.org/record/Anon2/3049/p145
S:Anon. MS, late 18thC, Vaughan Williams Mem. Library
O:England;Yorkshire
Z:vmp/efdss.Simon Wilson. Reviewed PJH 2008.
M:2/4
L:1/8
Q:1/4=120
K:G
d2d>d|c2B2|AGAB|GFGA|\
d2d>d|c2B2|AGAF|G2z2:|
K:D
|:d2ef|g2g2|agfe|d2D2|\
d2ef|g2g2|agfe|d2z2:|
W:Key is D throughout in MS. PJH.
